X:1
T:Praeludium ex d
T:Praeludium ex d
T:(Prelude) BWV 925
T:Johann Sebastian Bach?
C:Johann Sebastian Bach?
%%score 1 2 3 4
L:1/8
M:4/4
K:D
V:1 treble 
V:2 treble 
V:3 bass 
V:4 bass 
V:1
 z/ D/F/D/ A/B/c/A/ d/c/d/e/ d/f/e/d/ | c2 f2- ff e2- | e2 d x4 x | f2 ea [df]2 [e^g]2 | %4
 [ea]2 [df]2 =g/f/g/a/ g/b/a/g/ | f/e/f/g/ f/a/g/f/ e2- e/E/F/G/ | %6
 A/G/A/B/ A/=c/B/A/ G/F/G/A/ G/B/A/G/ | F2 x2 [EG]2 x2 | [FA]2 x2 [GB]2 x2 | %9
 [A-d]3 [Ac-] [F-c] [F-B]2 [FA-] | [D-A] [D-G]2 [DF-]F/F/E/D/ E2- | E/E/D/C/ D2- D/D/C/B,/ C2 | %12
 F,/A,/D/=C/ B,/D/G/F/ E/B/A/G/ F/E/D/C/ | B,/D/G/A/ MFE/D/ D>E- E/DC/ | %14
 z/ D/F/D/ G/A/B/G/ =c/B/c/d/ c/e/d/c/ | B2 A2- AG-G/FE/ | [DF][A,E]- [A,-E][A,D-] D2 C2 | %17
 D4- D/A,/B,/C/ D2 |] %18
V:2
 x8 | z A2 A B3 c- | c/A/c/A/ d/e/f/d/ g/f/g/a/ g/b/a/g/ | z d2 c- c B2 B | z A2 A d z z2 | x8 | %6
 x8 | D2 z/ B,/D/B,/- B,2 z/ C/E/C/- | C2 z/ D/F/D/- D2 z/ F/A/F/- | F2 E2 D2 C2 | B,2 A,2 B,3 B, | %11
 A,2 z/ B,/F,/A,/ G,2 z/ A,/E,/G,/ | x8 | B,-<[B,D-] DC D2 A,G, | x4 x2 x A- | %15
 AG- G/E/F- F<D- D>^C | A,G, F,/E,/F,/D,/ G,/F,/G,/A,/ G,/B,/A,/G,/- | G,/G,/F,/E,/ F,2- F,4 |] %18
V:3
 F,2 E, A,2 A,2 ^G, | A, x4 x2 x | z A,2 D- D D2 C | D x4 x2 x | x4 GF E2- | E2 D2- D/D/C/B,/ C2- | %6
 CA, D2- D D2 C | x8 | x8 | x8 | x8 | x8 | x8 | x2 A,2- A,/D,/G, F,E, | %14
 [D,F,][A,-=C] [A,B,-][G,-B,] [G,A,-][G,A,-] [F,-A,]F, | z/ G,/B,/G,/ D>=C B,>_B, A,G, | %16
 z/ A,,/^C,/A,,/ D,2 E,D, E,A,, | D,A,,- A,,/A,,/B,,/C,/ D,4 |] %18
V:4
 D,2 C,2 B,,2 E,2 | A,/A,,/C,/A,,/ D,/E,/F,/D,/ =G,/F,/G,/A,/ G,/B,/A,/G,/ | F,2 F,2 E,2 A,2 | %3
 D/D,/F,/D,/ A,/B,/C/A,/ D/C/D/E/ D/F/E/D/ | C/B,/C/D/ =C/E/D/C/ B,2 ^CB, | A,F, B,A, ^G,E, A,=G, | %6
 F,3 D, E,2 A,2 | z/ D,/F,/D,/ G,G,,z/E,/G,/E,/ A,A,, | z/ F,/A,/F,/ B,B,,z/G,/B,/G,/DD, | %9
 z/ D,,/F,,/D,,/ A,,/B,,/C,/A,,/ D,/B,,/D,/B,,/ F,/G,/A,/F,/ | %10
 G,/G,,/B,,/G,,/ D,/E,/F,/D,/ G,G,, z/ C,/E,/C,/ | F,F,, z/ B,,/D,/B,,/ E,E,, z/ A,,/C,/A,,/ | %12
 D,/E,/F,/D,/ G,/F,/E,/D,/ ^C,/A,,/B,,/C,/ D,/E,/F,/D,/ | G,E, A,A,, B,,>G,, A,,2 | D,8- | D,8 | %16
 D,,8- | D,,4 D,,4 |] %18

